X:2
T:Wake Up to Cape Breton
C:\251Brenda Stubbert, SOCAN
M:C|
L:1/8
K:Emix
e|"E"BEEF "D"(DEF)D|"E"E/E/E GB "A"eBcA|"E"BEEF "D"(DEF)A|B2AF DEFA|
"E"BEEF "D"(DEF)D|"E"E/E/E GB "A"eB!trill!cA|"E"BEEF"D" DEF[1D|"Bm"(!trill!B,A,)B,D"E"E3:|[2A|"Bm"B/c/d AF"E" E2z||[K:Edor]
|:f|"Em"eBBg "G"efge|"D"!trill!fdcd "Bm"(AB)df|"Em"eBBg "G"efge|"Bm"dBAF "Em"E/E/E Ef
|"Em"eBBg "G"efge|"D"fdcd (AB)df|"G"!trill!gefd "D"ecdA|"Bm"B/c/d AF "Em"E2z:|

#include "RightHeader.h"
%%footer 04/03/16 For use only by Roaring Jelly members
%%text Set 125 2016 NEFFA Celtic, continued
%%scale .85
$SmallLMargin
$SmallRMargin
